X: 2024
T: Major Robertson's    Strathspey
%R: strathspey, air
B: Niel Gow & Sons "A Second Collection of Strathspey Reels, etc." v.2 p.2 #4 (and top 6 staves of p.3)
Z: 2022 John Chambers <jc:trillian.mit.edu>
M: C
L: 1/16
Q: "Slow"
K: C
% - - - - - - - - - -
% Voice 1 reformatted for 4 6-bar lines.
V: 1 staves=2
EF |\
TG3A {A}G2{F}E2 G2AB {d}c2BA | G2AB c3E {E}D4 D2EF |\
TG3A {A}G2{F}E2 G2AB {d}c2BA | (AG).F.E (GF).E.D {D}C4 C2 :|\
Te>f |\
g2c2e2g2 Tc3d {f}e2dc | Tf3g {a}g2fe {e}d4 d2ef |
g2c2e2g2 Tc3d {f}e2dc | (Tfe).f.a (gf).e.d {d}c4 c2Te>f ||\
g2c2e2g2 Tc3d {f}e2dc | Tf3g{a}g2fe {e}d4 d2gf |\
e3gd3e Tc3d A2c2 | {A}G2.F.E {G}F2.E.D {D}C4 C2 |]
|: E2 |\
C3EG3E c3EG3E | c3Gc2E2 {E}D4 D3E |\
C3EG3E c3EG2E2 | {A}G2FE {G}F2ED {D}C4 C2 :|\
Te>f |\
g2c2e2g2 c2Tcd {f}e2dc | Tf3g {a}g2fe {e}d4 d2Te>f |
.g2.c2.e2.g2 c{d}c/B/ cd {f}e2dc | Tf3a {g}f2ed {d}c4 c2Te>f ||\
g2c2e2g2 Tc3d {f}e2dc | Tf3g {a}g2fe {e}d4 d2gf |\
e3g d3e Tc3d (A/c/B/c/ {d}cB/A/) | {A}G2.F.E {G}F2.E.D {D}C4C2 |]
% - - - - - - - - - -
% Voice 2 preserves the staff layout in the book.
V: 2 clef=bass middle=d
z2 | c4c4 e4f4 | e6c2 g4G4 | c4c4 e4f4 | g4G4 c4c2 :| z2 | c'4c'4 c'4c4 |
d2B2c2C2 G4g2z2 | c'4c'4 c'4c'4 | f4g2G2 c4c2z2 || c'4c'4 c4c4 | d2B2c2c2 G4g2z2 | c'4b4 a4f4 | g4G4
c4c2 |] |: z2 | c4c4 c4c4 | c4c4 G4[G4g4] | c4c4 c4c4 | G4G4 c4c2 :| z2 | c'4c'4 c'4c'4 | b4c'4 g4G2z2 |
c'4c'4 c'4c'4 | f4 g2G2 c4c2z2 || c'4c4 e4c4 | B4c4 G4g2b2 | c'4b4 a4f4 | g4G4 c4c2 |]
